public/avatar/body/153.svg

<svg xmlns:xlink="http://www.w3.org/1999/xlink" height="82" width="84.85" xmlns="http://www.w3.org/2000/svg"><use height="41.05" transform="translate(20.7 24.9)" width="42.05" xlink:href="#a"/><defs><use height="41.05" width="42.05" xlink:href="#b" id="a"/><g id="b" fill-rule="evenodd"><path d="m8.5-16.05-1.1-.3q-1.85-.1-2.7.8l2.3 1.2 1.75 1.1q3.3 2.4 4.25 6.55.5 2.2.5 4.45-.05 4.9-3.8 7.9.6-.25 1.15-.55 3.8-1.7 5-5.6l.25.7q.2 1.9-.1 3.9l-.4 2.25-1.3 4.6q-.7 1.95-2.15 3.5-3.2 3.45-7.75 4.6-4.7 1-9.4.1-4.7-1.1-7.55-4.65-2.95-3.6-3.7-8.15-.4-2.05-.45-4.2l.1-1.45-1.9-1.2.55-.2.5-1.15.05-.15-1.6-1.25 1.9-1.3-.65-1.2 2.45-2.75 1.6-1.8 1.75-1.95 1.6-1.9q2.4-3.05 5.95-4.45 3.2-1.25 6.6-.55 3.5.8 6.3 3.1m-26.25 10.3.9-.2 1.35-2.1-2.25 2.3M-19-3.25l1-.15.9-1.1-1.9 1.25M15.6-7.9l-1.9-2.85.65.65 1.25 2.2M8.55 15.85q1.3-.55 2.25-1.5 3.5-3.35 3.8-8l.45-3.9q-1.9 2.8-4.8 3.9l-1.75.6q-1.55-.15-2.5.5.45.95 1.2 1.6 3.7 2.95 1.35 6.8l-.9.45.15-.85q-.1-4.2-4-6.4l1.25-.1-.4-1.2-1.45.05-.9 1.45-.25-.4-.7-.2L.9 8.4l-1.15 1.65-.9-1.55-1 .7-.05-.75-1.3-.8.55.7-1.7-.5-1 1.35 1.7-.4q-3.45 1.75-4.3 5.4-.15.65.25 1.25 1.9 2.9 5.65 2.65 5.05.6 9.5-1.35l1.4-.9m-8.8-5.8V9.1l-.85-.6.85 1.55m12.75 3.4.25-.4-.25.4q-2.35 3.15-6.1 4 3.6-.55 5.8-3.6l.3-.4m-22.85-24.6-1.1-.1-2.1 1.7-.85 1.3q-1.2 1.85-1.1 4.2.2 3.95 2.6 7.05.85 1 2.1 1.6-1.2-1.2-1.85-2.85-.85-2.3-.75-4.85.05-2.05 1-3.6 1.3-2.15 2.05-4.45M-15 6.35q0 2.9 1.3 5.2 1.35 2.45 3.5 4.1-.25-1.95.05-3.9l.55-3.05-3.1-2.35q-1.5-1.05-2.45-2.75l.15 2.75" fill="#5e372e" transform="translate(21.05 20.5)"/><path d="M8.5-16.05q-2.8-2.3-6.3-3.1-3.4-.7-6.6.55-3.55 1.4-5.95 4.45l-1.6 1.9-1.75 1.95-1.6 1.8-2.45 2.75.65 1.2-1.9 1.3L-17.4-2l-.05.15L-18.5-.5l1.9 1.2-.1 1.45q.05 2.15.45 4.2.75 4.55 3.7 8.15Q-9.7 18.05-5 19.15q4.7.9 9.4-.1 4.55-1.15 7.75-4.6 1.45-1.55 2.15-3.5l1.3-4.6.4-2.25q.3-2 .1-3.9l.25.55.7-.45.95-.8-.05-.2.45.15L17.35-2l.3.7-.4-.75 1.6-1.25L17-4.55l.6-1.25-1.45-1.5-.55-.6-1.25-2.2-.65-.65-1.2-1.05-2.05-2.4-1.95-1.85M18.6-6.6l1 .95-.95.75L21-3.15 18.65-1.9l1.5 1.2-1.1 1.1-.75.75-1.1.7-.05-.85L17 4.65l-.2 1.7q-.85 4.95-4.2 8.7-3.5 3.85-8.4 4.9-4.85 1.15-9.65.15-4.6-.95-7.75-4.15-3.2-3.2-4.1-7.8l-.3-1.8-.05-.75.05-3.95-2.65-2.35 1.5-1.2-2.3-1.25 2.45-1.75-1.05-.75q1.4-1.1 2.6-2.5l1.1-1.3 3-3.35 1.65-1.85q2.75-3.05 6.7-4.6 2.1-.85 4.4-1.25 4.75 0 8.5 3.15l3.15 2.95 2.5 2.55 1.65 1.9 1.45 1.7L18.6-6.6M-3.95 8.8l-1.7.4 1-1.35 1.7.5.8.85 1-.7.9 1.55L.9 8.4l.45.25.95.6.9-1.45 1.45-.05.4 1.2-1.25.1-1.35 1.75L1 9.65-.3 12.2l-1.25-2.25-.85.95-1.55-2.1m4.1 6.7h-.4l-.5-.25-.1-.1.45-.7h.95l-.4 1.05" fill="#3a1412" transform="translate(21.05 20.5)"/><path d="m16.1.2-.25-.7q-1.2 3.9-5 5.6-.55.3-1.15.55 3.75-3 3.8-7.9 0-2.25-.5-4.45-.95-4.15-4.25-6.55L7-14.35l-2.3-1.2q.85-.9 2.7-.8l1.1.3 1.95 1.85 2.05 2.4 1.2 1.05 1.9 2.85.55.6-.8-.8 1.4 2.15.85.15-.6 1.25.85 1.1 1 .15-1.6 1.25.4.75.3.6.05.2-.95.8-.7.45L16.1.2M8.55 15.85Q10.9 12 7.2 9.05 6.45 8.4 6 7.45q.95-.65 2.5-.5l1.75-.6q2.9-1.1 4.8-3.9l-.45 3.9q-.3 4.65-3.8 8-.95.95-2.25 1.5" fill="#4b271a" transform="translate(21.05 20.5)"/><path d="m8.55 15.85-1.4.9.5-.45.9-.45" fill="#6e3d34" transform="translate(21.05 20.5)"/><path d="M7.15 16.75Q2.7 18.7-2.35 18.1q-3.75.25-5.65-2.65-.4-.6-.25-1.25.85-3.65 4.3-5.4l1.55 2.1.85-.95L-.3 12.2 1 9.65l1.45 1.15L3.8 9.05q3.9 2.2 4 6.4l-.15.85-.5.45m-7-1.25.4-1.05H-.4l-.45.7.1.1.5.25h.4m-11.9-25.6-.2-.05q-1.65.55-1.9 2.35l-.45 2.55 2.55-4.85m1.4-1.05q-.75 2.3-2.05 4.45-.95 1.55-1 3.6-.1 2.55.75 4.85Q-12 3.4-10.8 4.6-12.05 4-12.9 3q-2.4-3.1-2.6-7.05-.1-2.35 1.1-4.2l.85-1.3 2.1-1.7 1.1.1M-15 6.35l-.15-2.75q.95 1.7 2.45 2.75l3.1 2.35-.55 3.05q-.3 1.95-.05 3.9-2.15-1.65-3.5-4.1-1.3-2.3-1.3-5.2m8.95 6.1q-.45.95-.45 1.95 0 2.85 2.9 2.9l-2-1.4.4-1.55q.85-1.75.25-3.9l-1.1 2" fill="#845746" transform="translate(21.05 20.5)"/><path d="m-17.75-5.75 2.25-2.3-1.35 2.1-.9.2M-19-3.25l1.9-1.25-.9 1.1-1 .15m1.55 1.4-.5 1.15-.55.2 1.05-1.35M17.95-.7l-.3-.6-.3-.7L18.4-.55l-.45-.15m-.35-5.1-.85-.15-1.4-2.15.8.8 1.45 1.5m-5.1 19.25-.3.4q-2.2 3.05-5.8 3.6 3.75-.85 6.1-4m-18.55-1 1.1-2q.6 2.15-.25 3.9l-.4 1.55 2 1.4q-2.9-.05-2.9-2.9 0-1 .45-1.95" fill="#ab8172" transform="translate(21.05 20.5)"/><path d="m-11.75-10.1-2.55 4.85.45-2.55q.25-1.8 1.9-2.35l.2.05" fill="#a87e6f" transform="translate(21.05 20.5)"/><path d="m-2.95 8.35-.55-.7 1.3.8.05.75-.8-.85m2.7 1.7L-1.1 8.5l.85.6v.95m1.6-1.4.7.2.25.4-.95-.6" fill="#f7c5ac" transform="translate(21.05 20.5)"/></g></defs></svg>

<?xml version="1.0" encoding="UTF-8" standalone="no"?>
<svg xmlns:xlink="http://www.w3.org/1999/xlink" height="82.0px" width="84.85px" xmlns="http://www.w3.org/2000/svg">
  <g transform="matrix(1.0, 0.0, 0.0, 1.0, 37.4, 42.25)">
    <use height="41.05" transform="matrix(1.0, 0.0, 0.0, 1.0, -16.7, -17.35)" width="42.05" xlink:href="#sprite0"/>
  </g>
  <defs>
    <g id="sprite0" transform="matrix(1.0, 0.0, 0.0, 1.0, 21.05, 20.5)">
      <use height="41.05" transform="matrix(1.0, 0.0, 0.0, 1.0, -21.05, -20.5)" width="42.05" xlink:href="#shape0"/>
    </g>
    <g id="shape0" transform="matrix(1.0, 0.0, 0.0, 1.0, 21.05, 20.5)">
      <path d="M8.5 -16.05 L7.4 -16.35 Q5.55 -16.45 4.7 -15.55 L7.0 -14.35 8.75 -13.25 Q12.05 -10.85 13.0 -6.7 13.5 -4.5 13.5 -2.25 13.45 2.65 9.7 5.65 10.3 5.4 10.85 5.1 14.65 3.4 15.85 -0.5 L16.1 0.2 Q16.3 2.1 16.0 4.1 L15.6 6.35 14.3 10.95 Q13.6 12.9 12.15 14.45 8.95 17.9 4.4 19.05 -0.3 20.05 -5.0 19.15 -9.7 18.05 -12.55 14.5 -15.5 10.9 -16.25 6.35 -16.65 4.3 -16.7 2.15 L-16.6 0.7 -18.5 -0.5 -17.95 -0.7 -17.45 -1.85 -17.4 -2.0 -19.0 -3.25 -17.1 -4.55 -17.75 -5.75 -15.3 -8.5 -13.7 -10.3 -11.95 -12.25 -10.35 -14.15 Q-7.95 -17.2 -4.4 -18.6 -1.2 -19.85 2.2 -19.15 5.7 -18.35 8.5 -16.05 M-17.75 -5.75 L-16.85 -5.95 -15.5 -8.05 -17.75 -5.75 M-19.0 -3.25 L-18.0 -3.4 -17.1 -4.5 -19.0 -3.25 M15.6 -7.9 L13.7 -10.75 14.35 -10.1 15.6 -7.9 M8.55 15.85 Q9.85 15.3 10.8 14.35 14.3 11.0 14.6 6.35 L15.05 2.45 Q13.15 5.25 10.25 6.35 L8.5 6.95 Q6.95 6.8 6.0 7.45 6.45 8.4 7.2 9.05 10.9 12.0 8.55 15.85 L7.65 16.3 7.8 15.45 Q7.7 11.25 3.8 9.05 L5.05 8.95 4.65 7.75 3.2 7.8 2.3 9.25 2.05 8.85 1.35 8.65 0.9 8.4 -0.25 10.05 -1.15 8.5 -2.15 9.2 -2.2 8.45 -3.5 7.65 -2.95 8.35 -4.65 7.85 -5.65 9.2 -3.95 8.8 Q-7.4 10.55 -8.25 14.2 -8.4 14.85 -8.0 15.45 -6.1 18.35 -2.35 18.1 2.7 18.7 7.15 16.75 L8.55 15.85 M-0.25 10.05 L-0.25 9.1 -1.1 8.5 -0.25 10.05 M12.5 13.45 L12.75 13.05 12.5 13.45 Q10.15 16.6 6.4 17.45 10.0 16.9 12.2 13.85 L12.5 13.45 M-10.35 -11.15 L-11.45 -11.25 -13.55 -9.55 -14.4 -8.25 Q-15.6 -6.4 -15.5 -4.05 -15.3 -0.1 -12.9 3.0 -12.05 4.0 -10.8 4.6 -12.0 3.4 -12.65 1.75 -13.5 -0.55 -13.4 -3.1 -13.35 -5.15 -12.4 -6.7 -11.1 -8.85 -10.35 -11.15 M-15.0 6.35 Q-15.0 9.25 -13.7 11.55 -12.35 14.0 -10.2 15.65 -10.45 13.7 -10.15 11.75 L-9.6 8.7 -12.7 6.35 Q-14.2 5.3 -15.15 3.6 L-15.0 6.35" fill="#5e372e" fill-rule="evenodd" stroke="none"/>
      <path d="M8.5 -16.05 Q5.7 -18.35 2.2 -19.15 -1.2 -19.85 -4.4 -18.6 -7.95 -17.2 -10.35 -14.15 L-11.95 -12.25 -13.7 -10.3 -15.3 -8.5 -17.75 -5.75 -17.1 -4.55 -19.0 -3.25 -17.4 -2.0 -17.45 -1.85 -18.5 -0.5 -16.6 0.7 -16.7 2.15 Q-16.65 4.3 -16.25 6.35 -15.5 10.9 -12.55 14.5 -9.7 18.05 -5.0 19.15 -0.3 20.05 4.4 19.05 8.95 17.9 12.15 14.45 13.6 12.9 14.3 10.95 L15.6 6.35 16.0 4.1 Q16.3 2.1 16.1 0.2 L16.35 0.75 17.05 0.3 18.0 -0.5 17.95 -0.7 18.4 -0.55 17.35 -2.0 17.65 -1.3 17.25 -2.05 18.85 -3.3 17.0 -4.55 17.6 -5.8 16.15 -7.3 15.6 -7.9 14.35 -10.1 13.7 -10.75 12.5 -11.8 10.45 -14.2 8.5 -16.05 M18.6 -6.6 L19.6 -5.65 18.65 -4.9 21.0 -3.15 18.65 -1.9 20.15 -0.7 19.05 0.4 18.3 1.15 17.2 1.85 17.15 1.0 17.0 4.65 16.8 6.35 Q15.95 11.3 12.6 15.05 9.1 18.9 4.2 19.95 -0.65 21.1 -5.45 20.1 -10.05 19.15 -13.2 15.95 -16.4 12.75 -17.3 8.15 L-17.6 6.35 -17.65 5.6 -17.6 1.65 -20.25 -0.7 -18.75 -1.9 -21.05 -3.15 -18.6 -4.9 -19.65 -5.65 Q-18.25 -6.75 -17.05 -8.15 L-15.95 -9.45 -12.95 -12.8 -11.3 -14.65 Q-8.55 -17.7 -4.6 -19.25 -2.5 -20.1 -0.2 -20.5 4.55 -20.5 8.3 -17.35 L11.45 -14.4 13.95 -11.85 15.6 -9.95 17.05 -8.25 18.6 -6.6 M-3.95 8.8 L-5.65 9.2 -4.65 7.85 -2.95 8.35 -2.15 9.2 -1.15 8.5 -0.25 10.05 0.9 8.4 1.35 8.65 2.3 9.25 3.2 7.8 4.65 7.75 5.05 8.95 3.8 9.05 2.45 10.8 1.0 9.65 -0.3 12.2 -1.55 9.95 -2.4 10.9 -3.95 8.8 M0.15 15.5 L-0.25 15.5 -0.75 15.25 -0.85 15.15 -0.4 14.45 0.55 14.45 0.15 15.5" fill="#3a1412" fill-rule="evenodd" stroke="none"/>
      <path d="M16.1 0.2 L15.85 -0.5 Q14.65 3.4 10.85 5.1 10.3 5.4 9.7 5.65 13.45 2.65 13.5 -2.25 13.5 -4.5 13.0 -6.7 12.05 -10.85 8.75 -13.25 L7.0 -14.35 4.7 -15.55 Q5.55 -16.45 7.4 -16.35 L8.5 -16.05 10.45 -14.2 12.5 -11.8 13.7 -10.75 15.6 -7.9 16.15 -7.3 15.35 -8.1 16.75 -5.95 17.6 -5.8 17.0 -4.55 17.85 -3.45 18.85 -3.3 17.25 -2.05 17.65 -1.3 17.95 -0.7 18.0 -0.5 17.05 0.3 16.35 0.75 16.1 0.2 M8.55 15.85 Q10.9 12.0 7.2 9.05 6.45 8.4 6.0 7.45 6.95 6.8 8.5 6.95 L10.25 6.35 Q13.15 5.25 15.05 2.45 L14.6 6.35 Q14.3 11.0 10.8 14.35 9.85 15.3 8.55 15.85" fill="#4b271a" fill-rule="evenodd" stroke="none"/>
      <path d="M8.55 15.85 L7.15 16.75 7.65 16.3 8.55 15.85" fill="#6e3d34" fill-rule="evenodd" stroke="none"/>
      <path d="M7.15 16.75 Q2.7 18.7 -2.35 18.1 -6.1 18.35 -8.0 15.45 -8.4 14.85 -8.25 14.2 -7.4 10.55 -3.95 8.8 L-2.4 10.9 -1.55 9.95 -0.3 12.2 1.0 9.65 2.45 10.8 3.8 9.05 Q7.7 11.25 7.8 15.45 L7.65 16.3 7.15 16.75 M0.15 15.5 L0.55 14.45 -0.4 14.45 -0.85 15.15 -0.75 15.25 -0.25 15.5 0.15 15.5 M-11.75 -10.1 L-11.95 -10.15 Q-13.6 -9.6 -13.85 -7.8 L-14.3 -5.25 -11.75 -10.1 M-10.35 -11.15 Q-11.1 -8.85 -12.4 -6.7 -13.35 -5.15 -13.4 -3.1 -13.5 -0.55 -12.65 1.75 -12.0 3.4 -10.8 4.6 -12.05 4.0 -12.9 3.0 -15.3 -0.1 -15.5 -4.05 -15.6 -6.4 -14.4 -8.25 L-13.55 -9.55 -11.45 -11.25 -10.35 -11.15 M-15.0 6.35 L-15.15 3.6 Q-14.2 5.3 -12.7 6.35 L-9.6 8.7 -10.15 11.75 Q-10.45 13.7 -10.2 15.65 -12.35 14.0 -13.7 11.55 -15.0 9.25 -15.0 6.35 M-6.05 12.45 Q-6.5 13.4 -6.5 14.4 -6.5 17.25 -3.6 17.3 L-5.6 15.9 -5.2 14.35 Q-4.35 12.6 -4.95 10.45 L-6.05 12.45" fill="#845746" fill-rule="evenodd" stroke="none"/>
      <path d="M-17.75 -5.75 L-15.5 -8.05 -16.85 -5.95 -17.75 -5.75 M-19.0 -3.25 L-17.1 -4.5 -18.0 -3.4 -19.0 -3.25 M-17.45 -1.85 L-17.95 -0.7 -18.5 -0.5 -17.45 -1.85 M17.95 -0.7 L17.65 -1.3 17.35 -2.0 18.4 -0.55 17.95 -0.7 M17.6 -5.8 L16.75 -5.95 15.35 -8.1 16.15 -7.3 17.6 -5.8 M12.5 13.45 L12.2 13.85 Q10.0 16.9 6.4 17.45 10.15 16.6 12.5 13.45 M-6.05 12.45 L-4.95 10.45 Q-4.35 12.6 -5.2 14.35 L-5.6 15.9 -3.6 17.3 Q-6.5 17.25 -6.5 14.4 -6.5 13.4 -6.05 12.45" fill="#ab8172" fill-rule="evenodd" stroke="none"/>
      <path d="M-11.75 -10.1 L-14.3 -5.25 -13.85 -7.8 Q-13.6 -9.6 -11.95 -10.15 L-11.75 -10.1" fill="#a87e6f" fill-rule="evenodd" stroke="none"/>
      <path d="M-2.95 8.35 L-3.5 7.65 -2.2 8.45 -2.15 9.2 -2.95 8.35 M-0.25 10.05 L-1.1 8.5 -0.25 9.1 -0.25 10.05 M1.35 8.65 L2.05 8.85 2.3 9.25 1.35 8.65" fill="#f7c5ac" fill-rule="evenodd" stroke="none"/>
    </g>
  </defs>
</svg>
